X:1
T:Title
%%score ( 1 2 3 ) { ( 4 6 ) | 5 }
L:1/8
Q:1/4=100
M:4/4
K:F
V:1 treble nm="Grand Piano, Piano"
V:2 treble 
V:3 treble 
V:4 bass nm="Grand Piano, Piano"
V:6 bass 
V:5 bass 
V:1
 [A,CF]2 [CFc]2 [DFB]2 AG | [DF]6 [B,DA]2 | [CG]2 FE F G2 E | D2- [=B,D]2 C4 | D2 EF z2 B2 | %5
w: ||||(Easter)~~~~~~~day~ when~ our~ was~|
 A2- [DFA]2 F2- [DF-d][CFc] | z4 [EG]4 | [A,CF]8 | [DG]2 GG [DA]2 [EG][^FA] | [DGB]6 [CGc]2 | %10
w: raised,~ * break ing~ the~|dom~|death.~|1.~(Easter)~~~~~All~ the~ fair~ beau ty~ of~|earth,~ from~|
 d2 cB [_EA]2 BG | [D^F]4 [A,D]4 | [DG]4 [DA]2 [EG][^FA] | [DGB]2 [Ed]2 c2 A2 | B2 AA G2 AF | %15
w: death~ of~ the~ win ter~ a|ri sing!~|Ev ery~ good~ *|gift~ of~ year~ *|now~ with~ its~ Mas ter~ re|
 c4- [DFc-]2 [EGc]2 | (3D2 D2 D2 (3_E2 D2 E2 | [A,CF]2 [B,FB]2 [FA]2 GG | F2- [A,F-]2 F2 GF | %19
w: turns;~ * *|2.~(Easter)~~~~~Rise~ from~ the~ grave~ now,~ O~|Lord,~ the~ au thor~ of~|life~ * * and~ cre|
 D4 z2 A,2 | (3D2 D2 D2 (3E2 F2 G2 | [A,DA]4 [DFB]2 AB | [DF]4 [^CE]3 D | [A,D]4 [CE]4 |] %24
w: a *|Tread ing~ the~ path way~ of~|death,~ new~ life~ you~|give~ to~ us~|all:~ *|
V:2
 z4 z2 E2 | x8 | z2 C2 C4 | C2 z2 z4 | z2 C2 [DG]4 | [^CG]2 z2 [=Cc]2 z2 | [CFA]4 C2 z F | x8 | %8
w: ||||||* * of~||
 z2 B,2 z4 | x8 | [DG]4 z2 C2 | x8 | x8 | z4 F4 | D4 D4 | [CE]4 z4 | B,4 B,4 | z4 z2 _E2 | %18
w: ||||||||||
 B,2 z2 B,4 | z4 C4 | B,4 [B,D]4 | z4 z2 D2 | x8 | x8 |] %24
w: ||||||
V:3
 x8 | x8 | x8 | x8 | x8 | x8 | z4 z2 B,2 | x8 | x8 | x8 | x8 | x8 | x8 | x8 | x8 | x8 | x8 | %17
 z4 B,4 | x8 | B,6 z2 | x8 | x8 | x8 | x8 |] %24
V:4
 F,2 A,,2 B,,2 CB, | A,6 F,2 | G,4 F,2 C,2 | A,2 z2 E,4 | F,4 [G,B,]4 | G,2 z2 z4 | z4 C,4 | F,8 | %8
 D,8- | D,2 z2 z4 | z4 G,4 | A,4 ^F,4 | D,8- | D,2 G,2 A,4 | G,2 F,2 F,4 | C8 | F,4 _E,4 | %17
 F,,2 D,,2 _E,,2 G,,2 | D,2 _E,2 F,2 B,2 | F,8 | F,4 G,4 | F,4 F,2 A,G, | F,2 G,2 A,2 G,2 | %23
 F,4 G,4 |] %24
V:5
 F,,2 z2 z2 C,2 | D,2 E,2 F,2 D,2 | E,2 C,2 A,,2 E,,2 | F,,2 G,,2 C,4 | B,,2 A,,2 G,,2 F,,2 | %5
 E,,2 D,,2 A,,2 B,,A,, | C,4 C,,4 | F,,8 | B,,2 G,,2 ^F,,2 D,,2 | G,,2 G,2 F,2 _E,2 | %10
 B,,2 G,,2 C,2 _E,2 | D,2 E,2 D,2 C,2 | B,,2 G,,2 ^F,,2 D,,2 | G,,2 B,,2 A,,2 D,2 | %14
 G,,2 A,,2 B,,2 =B,,2 | C,2 B,,2 A,,2 G,,2 | B,,4 G,,4 | z8 | B,,2 C,2 D,2 _E,2 | z8 | B,,4 G,,4 | %21
 D,2 C,2 B,,2 F,,G,, | A,,8 | D,4 C,4 |] %24
V:6
 x8 | x8 | x8 | z2 G,6 | x8 | A,2- [F,A,]2 F,4 | x8 | x8 | x8 | x8 | x8 | x8 | x8 | x8 | x8 | x8 | %16
 x8 | x8 | x8 | z4 F,,4 | x8 | x8 | x8 | x8 |] %24

